X:1 % 20
T:Da Fuereinander
R:Jodler
A:Bad Ischl, Salzkammergut
C:
B:"Pfeifermusik aus Bad Ischl", Lois Blamberger, 3. Auflage, Bad Ischl 1990
S:dort Nr. 25 mit der Angabe:aus der Sammlung Lois Blamberger
Z:abc transcription Simon Wascher
M:3/4
L:1/8
K:G %Transposed from C
V:1
B>B |\
ca eac2 | Bg dgB2 | Af df Ac | Bg dgB2 |\
ca eac'2 | bg dgB2 | Af df Af | g4z2 :| 
V:2
z2 |\
z6 | z6 | fd c'd fg | gd bdg2 |\
ae c'ea2 | gd bd g2 | fd c'd fd | d4z2 :| 
V:3
z2 |\
z6 | db gbd2 | dc' fa ce | db gbd'2 |\
ec' ac'e'2 | d'b gbd2 | dc' fa dc' | b4z2 :|
